X: 1788
T: Ar Lan Y Mor
R: waltz
M: 3/4
K: Gmajor
|:d2 d2 e2|d6|B2 c2 d2|c2 B4|d2 d2 e2|d6|B2 c2 d2|c2 B4|
d2 d2 e2|d6|B2 A2 G2|E2 G4|G2 G2 e2|d6|B2 A2 B2|A2 G4:|
|:d2 d3 e|d6|B2 c3 d|cB- B4|d2 d3 e|d6|B2 c3 d|cB- B4|
d2 d3 e|d6|B2 A2 G2|EG- G4|G2 G3 e|d6|B2 A3 B|AG- G4:|

